images/icons/check-mark.svg

<svg width="26" height="26" viewBox="0 0 26 26" fill="none" xmlns="http://www.w3.org/2000/svg">
<path d="M18.3046 9.19232C18.6708 9.55853 18.6708 10.1522 18.3046 10.5182L12.0153 16.8077C11.649 17.1737 11.0556 17.1737 10.6894 16.8077L7.69543 13.8135C7.32922 13.4475 7.32922 12.8539 7.69543 12.4879C8.06146 12.1216 8.65509 12.1216 9.02112 12.4879L11.3522 14.819L16.9787 9.19232C17.3449 8.82629 17.9385 8.82629 18.3046 9.19232ZM25 13C25 19.633 19.6321 25 13 25C6.367 25 1 19.6321 1 13C1 6.367 6.36792 1 13 1C19.633 1 25 6.36792 25 13ZM23.125 13C23.125 7.40338 18.5959 2.875 13 2.875C7.40338 2.875 2.875 7.40411 2.875 13C2.875 18.5966 7.40411 23.125 13 23.125C18.5966 23.125 23.125 18.5959 23.125 13Z" fill="#198580"/>
<path fill-rule="evenodd" clip-rule="evenodd" d="M16.9789 9.19252C17.3451 8.82649 17.9387 8.82649 18.3048 9.19252C18.671 9.55873 18.671 10.1524 18.3048 10.5184L12.0155 16.8079C11.6492 17.1739 11.0558 17.1739 10.6896 16.8079L7.69563 13.8137C7.32942 13.4477 7.32942 12.8541 7.69563 12.488C8.06166 12.1218 8.65529 12.1218 9.02131 12.488L11.3524 14.8192L16.9789 9.19252ZM11.3524 14.3949L16.7668 8.98039C17.2501 8.4973 18.0337 8.49717 18.5169 8.98038C19.0002 9.4637 19.0003 10.2473 18.5169 10.7305C18.5169 10.7305 18.5169 10.7305 18.5169 10.7305L12.2276 17.02C11.7442 17.5031 10.9609 17.5032 10.4775 17.0201L7.48355 14.0259C7.48353 14.0259 7.48357 14.0259 7.48355 14.0259C7.00021 13.5428 7.00013 12.7592 7.48345 12.276C7.96663 11.7927 8.75028 11.7926 9.23345 12.2759C9.23346 12.2759 9.23343 12.2759 9.23345 12.2759L11.3524 14.3949ZM25.3002 13.0002C25.3002 19.7989 19.7979 25.3002 13.0002 25.3002C6.2015 25.3002 0.700195 19.7979 0.700195 13.0002C0.700195 6.2015 6.20245 0.700195 13.0002 0.700195C19.7989 0.700195 25.3002 6.20245 25.3002 13.0002ZM22.8252 13.0002C22.8252 7.56928 18.4304 3.1752 13.0002 3.1752C7.56928 3.1752 3.1752 7.56998 3.1752 13.0002C3.1752 18.4311 7.56998 22.8252 13.0002 22.8252C18.4311 22.8252 22.8252 18.4304 22.8252 13.0002ZM13.0002 25.0002C19.6323 25.0002 25.0002 19.6332 25.0002 13.0002C25.0002 6.36812 19.6332 1.0002 13.0002 1.0002C6.36812 1.0002 1.0002 6.3672 1.0002 13.0002C1.0002 19.6323 6.3672 25.0002 13.0002 25.0002ZM13.0002 2.8752C18.5961 2.8752 23.1252 7.40358 23.1252 13.0002C23.1252 18.5961 18.5968 23.1252 13.0002 23.1252C7.40431 23.1252 2.8752 18.5968 2.8752 13.0002C2.8752 7.40431 7.40358 2.8752 13.0002 2.8752Z" fill="#198580"/>
</svg>

<svg width="26" height="26" fill="none" xmlns="http://www.w3.org/2000/svg"><path d="M18.305 9.192a.937.937 0 010 1.326l-6.29 6.29a.938.938 0 01-1.326 0l-2.994-2.995a.937.937 0 111.326-1.325l2.331 2.331 5.627-5.627a.938.938 0 011.326 0zM25 13c0 6.633-5.368 12-12 12-6.633 0-12-5.368-12-12C1 6.367 6.368 1 13 1c6.633 0 12 5.368 12 12zm-1.875 0A10.12 10.12 0 0013 2.875 10.12 10.12 0 002.875 13 10.12 10.12 0 0013 23.125 10.12 10.12 0 0023.125 13z" fill="#198580"/><path fill-rule="evenodd" clip-rule="evenodd" d="M16.979 9.193a.938.938 0 011.326 1.325l-6.29 6.29a.938.938 0 01-1.325 0l-2.994-2.994a.937.937 0 111.325-1.326l2.331 2.331 5.627-5.626zm-5.627 5.202l5.415-5.415a1.238 1.238 0 011.75 1.75l-6.29 6.29a1.238 1.238 0 01-1.75 0l-2.993-2.994a1.237 1.237 0 111.75-1.75l2.118 2.119zM25.3 13c0 6.799-5.502 12.3-12.3 12.3C6.202 25.3.7 19.798.7 13 .7 6.202 6.202.7 13 .7 19.8.7 25.3 6.202 25.3 13zm-2.475 0A9.82 9.82 0 0013 3.175 9.82 9.82 0 003.175 13 9.82 9.82 0 0013 22.825 9.82 9.82 0 0022.825 13zM13 25c6.632 0 12-5.367 12-12 0-6.632-5.367-12-12-12C6.368 1 1 6.367 1 13c0 6.632 5.367 12 12 12zm0-22.125A10.12 10.12 0 0123.125 13 10.12 10.12 0 0113 23.125 10.12 10.12 0 012.875 13 10.12 10.12 0 0113 2.875z" fill="#198580"/></svg>
